Papirus/32x32/apps/org.kde.karp.svg

<svg width="32" height="32" version="1.1" xmlns="http://www.w3.org/2000/svg">
 <path d="m6.90983 3.00301h-1.90983v25.81469l1.90983 0.3167zm-0.06325-0.00301v26.1292h17.68012c0.8162 0 1.4733-1.2964 1.4733-2.5135v-21.41889c0-1.21703-0.6571-2.19681-1.4733-2.19681zm-1.84658 5.4955v22.5045h19.3236c0.8921 0 1.6103-0.9798 1.6103-2.197v-18.1105c0-1.21715-0.7182-2.197-1.6103-2.197z" style="opacity:.2"/>
 <path d="m5 8v22h19.3846c0.895 0 1.6154-0.9579 1.6154-2.1477v-17.7045c0-1.18994-0.7204-2.1478-1.6154-2.1478z" style="fill:#a80000"/>
 <path d="m5.99999 11v18h18.43141c0.869 0 1.5686-0.9412 1.5686-2.1102v-13.7796c0-1.169-0.6996-2.1102-1.5686-2.1102z" style="fill:#e4e4e4"/>
 <path d="M 5,3 V 28 H 24.2379 C 25.1329,28 26,26.835 26,25.667 V 5.10855 C 26,3.94042 25.2796,3 24.3846,3 Z" style="fill:#a80000"/>
 <path d="M 5.99999,2 V 27 H 24.4615 C 25.3138,27 26,25.7597 26,24.5952 V 4.10188 C 26,2.93744 25.3138,2 24.4615,2 Z" style="fill:#c40f0f"/>
 <path d="m6.74229 2-1.55572 2.03949c1.99708 6.08811 7.92073 12.56021 10.67093 11.24691-1.7628 0.1303-5.1596-7.36312-5.1596-7.36312s8.5929 5.27992 5.1913 7.34272c0.5168-0.0583 1.0377-0.3731 1.5297-0.99 2.1009-2.6732-1.7097-8.37647-7.97233-12.27261z" style="fill:#ff5c5c;stop-color:#000000"/>
 <path d="m7 2h-2v25.6849l2 0.3151z" style="fill:#a80000"/>
 <path d="m5 27.0002v2.9998h3.00003v-1h-2.00004v-1h2.00004v-1.0002z" style="fill:#a80000"/>
 <path d="m23.14563 10c-0.339662 0-0.673473 0.160427-0.882996 0.459656l-0.61737 0.881957-0.617371 0.881958-8.027893 11.464417 1.542907 1.081176-1.542907-1.080138v3.310974l1.59375-0.574829 1.491029-0.57483h0.0011l8.02893-11.465454 0.618408-0.881958 0.617371-0.881958c0.131622-0.187977 0.194031-0.402955 0.194031-0.616333 0-0.339663-0.15939-0.674511-0.458619-0.884033l-1.322999-0.925537c-0.187977-0.131623-0.403995-0.195068-0.617371-0.195068z" style="opacity:.2"/>
 <path d="m21.645031 10.341215 0.617473-0.881841c0.209523-0.2992287 0.543845-0.459374 0.883507-0.459374 0.213378 0 0.428862 0.063197 0.616839 0.1948221l1.322762 0.9262079c0.299228 0.209522 0.459374 0.543844 0.459374 0.883508 0 0.213378-0.0632 0.428863-0.194823 0.61684l-0.617507 0.881685z" style="fill:#999999"/>
 <path d="m14.59375 25.425197-1.59375-1.080575v-1.655378l3.0855 2.161151z" style="fill:#c4c4c4"/>
 <path d="m13 26v-1.655378l1.59375 1.080575z" fill="#424048"/>
 <path d="M 21.027719,11.223532 13,22.687995 l 3.08576,2.163106 8.028521,-11.466165 z" style="fill:#999999"/>
 <path d="m21.027719 11.223056 0.617312-0.881841 3.087625 2.161848-0.618375 0.881873z" style="fill:#c4c4c4"/>
 <path d="M 6.8457,2 V 2.00391 H 5 v 1 H 6.8457 V 3 H 24.5273 C 25.3436,3 26,3.98023 26,5.19727 v -1 C 26,2.98023 25.3436,2 24.5273,2 Z" style="fill:#ffffff;opacity:.2"/>
 <path d="m23.146484 9c-0.339662 0-0.675242 0.1597554-0.884765 0.4589844l-0.617188 0.8828126-0.617187 0.880859-8.027344 11.464844 0.46875 0.330078 7.558594-10.794922 0.617187-0.880859 0.617188-0.882813c0.209523-0.299229 0.545103-0.458984 0.884765-0.458984 0.213376 0 0.429211 0.06369 0.617188 0.195312l1.322266 0.925782c0.145527 0.101899 0.256857 0.233536 0.333984 0.380859 0.08265-0.157554 0.125-0.328064 0.125-0.498047 0-0.339663-0.159755-0.67329-0.458984-0.882812l-1.322266-0.9257815c-0.187977-0.131623-0.403812-0.1953125-0.617188-0.1953125zm-9.677734 14.017578-0.46875-0.328125v0.998047zm-0.46875 0.669922v2e-3l1.542969 1.080078z" style="fill:#ffffff;opacity:.2"/>
</svg>

<svg xmlns="http://www.w3.org/2000/svg" width="32" height="32" version="1.1">
 <path style="opacity:0.2" d="M 6.9098,3.003 H 5 V 28.818 L 6.9098,29.134 Z M 6.8466,3 V 29.129 H 24.527 C 25.343,29.129 26,27.833 26,26.616 V 5.1968 C 26,3.9798 25.343,3 24.527,3 Z M 5,8.4955 V 31 H 24.324 C 25.216,31 25.934,30.02 25.934,28.803 V 10.693 C 25.934,9.4754 25.216,8.4955 24.324,8.4955 Z"/>
 <path style="fill:#a80000" d="M 5,26 V 30 H 24.385 C 25.28,30 26,29.042 26,27.852 V 27 L 25,26 Z"/>
 <path style="fill:#e4e4e4" d="M 6,24 V 29 H 24.431 C 25.3,29 26,28.059 26,26.89 V 25 L 25,24 Z"/>
 <path style="fill:#a80000" d="M 5,23 V 28 H 24.238 C 25.133,28 26,26.835 26,25.667 V 24 L 25,23 Z"/>
 <path style="fill:#c40f0f" d="M 6,2 V 27 H 24.462 C 25.314,27 26,25.76 26,24.595 V 4.102 C 26,2.937 25.314,2 24.462,2 Z"/>
 <path style="opacity:0.2" d="M 23.146,10 C 22.806,10 22.473,10.16 22.264,10.459 L 13,23.688 V 27 L 16.086,25.85 25.35,12.621 C 25.482,12.433 25.545,12.219 25.545,12.006 25.545,11.666 25.385,11.331 25.086,11.121 L 23.764,10.195 C 23.576,10.064 23.359,10 23.146,10 Z"/>
 <path style="fill:#ff5c5c" d="M 6.742,2 5.186,4.039 C 7.183,10.127 13.107,16.599 15.857,15.286 14.094,15.416 10.697,7.923 10.697,7.923 10.697,7.923 19.29,13.203 15.888,15.266 16.405,15.208 16.926,14.893 17.418,14.276 19.519,11.603 15.708,5.9 9.446,2.003 Z"/>
 <path style="fill:#a80000" d="M 7,2 H 5 V 28 H 7 Z"/>
 <path style="fill:#c4c4c4" d="M 21.028,11.223 21.645,10.341 23.5,11 24.733,12.503 24.114,13.385 22.1,13 Z"/>
 <path style="fill:#999999" d="M 21.645,10.341 22.263,9.4594 C 22.472,9.1601 22.806,9 23.146,9 23.359,9 23.575,9.0632 23.763,9.1948 L 25.086,10.121 C 25.385,10.331 25.545,10.665 25.545,11.005 25.545,11.218 25.482,11.433 25.35,11.621 L 24.733,12.503 Z"/>
 <path style="fill:#c4c4c4" d="M 14.594,25.425 13.7,25 13,24.345 V 22.689 L 15.1,23 16.085,24.85 Z"/>
 <path fill="#424048" d="M 13,26 V 24.345 L 14.594,25.425 Z"/>
 <path style="fill:#999999" d="M 21.028,11.224 13,22.688 16.086,24.851 24.114,13.385 Z"/>
 <path style="opacity:0.1;fill:#ffffff" d="M 5,2 V 3 H 24.463 C 25.315,3 26,3.9366 26,5.1016 V 4.1016 C 26,2.9366 25.315,2 24.463,2 Z"/>
 <path style="fill:#ffffff;opacity:0.2" d="M 23.146 9 C 22.806 9 22.473 9.1597 22.264 9.459 L 13 22.688 L 13 23.688 L 22.264 10.459 C 22.473 10.16 22.806 10 23.146 10 C 23.359 10 23.576 10.064 23.764 10.195 L 25.086 11.121 C 25.231 11.223 25.343 11.355 25.42 11.502 C 25.503 11.345 25.545 11.175 25.545 11.006 C 25.545 10.666 25.385 10.331 25.086 10.121 L 23.764 9.1953 C 23.576 9.0637 23.359 9 23.146 9 z"/>
</svg>
